SVG/Dataverse-Colored.svg

<?xml version="1.0" encoding="UTF-8" standalone="no"?>
<svg
   xmlns:dc="http://purl.org/dc/elements/1.1/"
   xmlns:cc="http://creativecommons.org/ns#"
   xmlns:rdf="http://www.w3.org/1999/02/22-rdf-syntax-ns#"
   xmlns:svg="http://www.w3.org/2000/svg"
   xmlns="http://www.w3.org/2000/svg"
   width="339.85666"
   height="260.81647"
   viewBox="0 0 339.85666 260.81647"
   fill="none"
   version="1.1"
   id="svg5758">
  <metadata
     id="metadata5762">
    <rdf:RDF>
      <cc:Work
         rdf:about="">
        <dc:format>image/svg+xml</dc:format>
        <dc:type
           rdf:resource="http://purl.org/dc/dcmitype/StillImage" />
        <dc:title></dc:title>
      </cc:Work>
    </rdf:RDF>
  </metadata>
  <g
     clip-path="url(#clip0)"
     id="g5699"
     transform="translate(0,-39.600035)">
    <g
       clip-path="url(#clip1)"
       id="g5697">
      <mask
         id="mask0"
         mask-type="alpha"
         maskUnits="userSpaceOnUse"
         x="-1"
         y="39"
         width="341"
         height="262">
        <path
           d="m 325.674,76.3034 -0.011,-6e-4 C 321.127,65.7663 313.279,56.5485 302.581,50.3718 276.186,35.133 242.436,44.1753 227.196,70.5681 l -0.015,-9e-4 c -1.366,-1.2188 -2.772,-2.413 -4.215,-3.5856 C 176.198,28.9886 103.074,28.8184 49.1496,77.2917 0.710451,120.834 -14.4436,197.552 14.0297,264.032 l 0.0176,0.001 c 4.5566,10.402 12.353,19.494 22.9415,25.608 26.386,15.233 60.1228,6.202 75.3702,-20.171 l 0.015,10e-4 0.014,-0.024 c 1.365,1.219 2.77,2.415 4.213,3.588 46.768,37.993 119.892,38.163 173.816,-10.31 48.362,-43.473 63.545,-120.015 35.257,-186.4216 z"
           fill="#c4c4c4"
           id="path5680" />
      </mask>
      <g
         mask="url(#mask0)"
         id="g5695">
        <path
           fill-rule="evenodd"
           clip-rule="evenodd"
           d="m 139.902,221.798 c 46.136,26.636 87.59,16.36 111.032,-24.242 C 274.376,156.953 265.562,101.588 222.968,66.9854 176.2,28.9924 103.076,28.8221 49.1514,77.2954 0.712304,120.838 -14.4417,197.556 14.0315,264.036 l 0.0148,10e-4 c 4.5567,10.401 12.353,19.494 22.9416,25.607 26.386,15.234 60.1228,6.203 75.3701,-20.17 h 0.018 z"
           fill="url(#paint0_linear)"
           id="path5683"
           style="fill:url(#paint0_linear)" />
        <path
           fill-rule="evenodd"
           clip-rule="evenodd"
           d="m 325.662,76.3028 0.013,8e-4 C 353.964,142.71 338.781,219.252 290.419,262.725 236.494,311.198 163.371,311.028 116.603,273.035 74.0085,238.432 65.195,183.067 88.6369,142.465 112.079,101.862 153.532,91.5865 199.668,118.223 l 27.514,-47.6556 0.015,8e-4 c 15.241,-26.3915 48.99,-35.433 75.384,-20.1945 10.697,6.1763 18.545,15.3934 23.081,25.9291 z"
           fill="url(#paint1_linear)"
           id="path5685"
           style="fill:url(#paint1_linear)" />
        <path
           fill-rule="evenodd"
           clip-rule="evenodd"
           d="m 199.669,118.226 c -46.136,-26.6369 -87.59,-16.361 -111.0318,24.241 -22.648,39.228 -15.1884,92.235 23.7548,126.985 l 27.512,-47.653 c 46.136,26.637 87.59,16.361 111.031,-24.241 22.648,-39.228 15.189,-92.235 -23.754,-126.985 z"
           fill="#088142"
           id="path5687" />
        <rect
           opacity="0.25"
           x="216.834"
           y="32.268902"
           width="28.121901"
           height="345.12201"
           transform="rotate(30,216.834,32.2689)"
           fill="url(#paint2_linear)"
           id="rect5689"
           style="fill:url(#paint2_linear)" />
        <g
           filter="url(#filter0_dd)"
           id="g5693">
          <path
             d="m 221.587,199.911 c -16.512,28.599 -53.082,38.398 -81.681,21.886 -28.6,-16.512 -38.399,-53.082 -21.887,-81.682 16.512,-28.599 53.082,-38.398 81.682,-21.886 28.599,16.512 38.398,53.082 21.886,81.682 z"
             fill="url(#paint3_linear)"
             id="path5691"
             style="fill:url(#paint3_linear)" />
        </g>
      </g>
    </g>
  </g>
  <defs
     id="defs5756">
    <filter
       id="filter0_dd"
       x="105.998"
       y="107.208"
       width="127.611"
       height="127.611"
       filterUnits="userSpaceOnUse"
       color-interpolation-filters="sRGB">
      <feFlood
         flood-opacity="0"
         result="BackgroundImageFix"
         id="feFlood5701" />
      <feColorMatrix
         in="SourceAlpha"
         type="matrix"
         values="0 0 0 0 0 0 0 0 0 0 0 0 0 0 0 0 0 0 127 0"
         id="feColorMatrix5703" />
      <feOffset
         dy="0.19"
         id="feOffset5705" />
      <feGaussianBlur
         stdDeviation="0.19"
         id="feGaussianBlur5707" />
      <feColorMatrix
         type="matrix"
         values="0 0 0 0 0 0 0 0 0 0 0 0 0 0 0 0 0 0 0.24 0"
         id="feColorMatrix5709" />
      <feBlend
         mode="normal"
         in2="BackgroundImageFix"
         result="effect1_dropShadow"
         id="feBlend5711" />
      <feColorMatrix
         in="SourceAlpha"
         type="matrix"
         values="0 0 0 0 0 0 0 0 0 0 0 0 0 0 0 0 0 0 127 0"
         id="feColorMatrix5713" />
      <feOffset
         dy="1"
         id="feOffset5715" />
      <feGaussianBlur
         stdDeviation="2"
         id="feGaussianBlur5717" />
      <feColorMatrix
         type="matrix"
         values="0 0 0 0 0 0 0 0 0 0 0 0 0 0 0 0 0 0 0.32 0"
         id="feColorMatrix5719" />
      <feBlend
         mode="normal"
         in2="effect1_dropShadow"
         result="effect2_dropShadow"
         id="feBlend5721" />
      <feBlend
         mode="normal"
         in="SourceGraphic"
         in2="effect2_dropShadow"
         result="shape"
         id="feBlend5723" />
    </filter>
    <linearGradient
       id="paint0_linear"
       x1="124.665"
       y1="36.265202"
       x2="154.132"
       y2="303.73199"
       gradientUnits="userSpaceOnUse">
      <stop
         stop-color="#096738"
         id="stop5726" />
      <stop
         offset="1"
         stop-color="#0A4C2D"
         id="stop5728" />
    </linearGradient>
    <linearGradient
       id="paint1_linear"
       x1="245.933"
       y1="32.867298"
       x2="301.46701"
       y2="298.06699"
       gradientUnits="userSpaceOnUse">
      <stop
         stop-color="#4ED062"
         id="stop5731" />
      <stop
         offset="1"
         stop-color="#209B4E"
         id="stop5733" />
    </linearGradient>
    <linearGradient
       id="paint2_linear"
       x1="244.95599"
       y1="306.88"
       x2="216.834"
       y2="306.88"
       gradientUnits="userSpaceOnUse">
      <stop
         id="stop5736" />
      <stop
         offset="0.271932"
         stop-opacity="0.560661"
         id="stop5738" />
      <stop
         offset="0.620896"
         stop-opacity="0.264518"
         id="stop5740" />
      <stop
         offset="1"
         stop-opacity="0"
         id="stop5742" />
    </linearGradient>
    <linearGradient
       id="paint3_linear"
       x1="229.608"
       y1="229.81799"
       x2="186.334"
       y2="95.6698"
       gradientUnits="userSpaceOnUse">
      <stop
         stop-color="#66EB6E"
         id="stop5745" />
      <stop
         offset="1"
         stop-color="#9FE0A2"
         id="stop5747" />
    </linearGradient>
    <clipPath
       id="clip0">
      <rect
         width="340"
         height="340"
         fill="#ffffff"
         id="rect5750"
         x="0"
         y="0" />
    </clipPath>
    <clipPath
       id="clip1">
      <rect
         width="340"
         height="340"
         fill="#ffffff"
         id="rect5753"
         x="0"
         y="0" />
    </clipPath>
  </defs>
</svg>

<svg width="340" height="340" viewBox="0 0 340 340" fill="none" xmlns="http://www.w3.org/2000/svg">
<g clip-path="url(#clip0)">
<g clip-path="url(#clip1)">
<mask id="mask0" mask-type="alpha" maskUnits="userSpaceOnUse" x="-1" y="39" width="341" height="262">
<path d="M325.674 76.3034L325.663 76.3028C321.127 65.7663 313.279 56.5485 302.581 50.3718C276.186 35.133 242.436 44.1753 227.196 70.5681L227.181 70.5672C225.815 69.3484 224.409 68.1542 222.966 66.9816C176.198 28.9886 103.074 28.8184 49.1496 77.2917C0.710451 120.834 -14.4436 197.552 14.0297 264.032L14.0473 264.033C18.6039 274.435 26.4003 283.527 36.9888 289.641C63.3748 304.874 97.1116 295.843 112.359 269.47L112.374 269.471L112.388 269.447C113.753 270.666 115.158 271.862 116.601 273.035C163.369 311.028 236.493 311.198 290.417 262.725C338.779 219.252 353.962 142.71 325.674 76.3034Z" fill="#C4C4C4"/>
</mask>
<g mask="url(#mask0)">
<path fill-rule="evenodd" clip-rule="evenodd" d="M139.902 221.798C186.038 248.434 227.492 238.158 250.934 197.556C274.376 156.953 265.562 101.588 222.968 66.9854C176.2 28.9924 103.076 28.8221 49.1514 77.2954C0.712304 120.838 -14.4417 197.556 14.0315 264.036L14.0463 264.037C18.603 274.438 26.3993 283.531 36.9879 289.644C63.3739 304.878 97.1107 295.847 112.358 269.474L112.376 269.474L139.902 221.798Z" fill="url(#paint0_linear)"/>
<path fill-rule="evenodd" clip-rule="evenodd" d="M325.662 76.3028L325.675 76.3036C353.964 142.71 338.781 219.252 290.419 262.725C236.494 311.198 163.371 311.028 116.603 273.035C74.0085 238.432 65.195 183.067 88.6369 142.465C112.079 101.862 153.532 91.5865 199.668 118.223L227.182 70.5674L227.197 70.5682C242.438 44.1767 276.187 35.1352 302.581 50.3737C313.278 56.55 321.126 65.7671 325.662 76.3028Z" fill="url(#paint1_linear)"/>
<path fill-rule="evenodd" clip-rule="evenodd" d="M199.669 118.226C153.533 91.5891 112.079 101.865 88.6372 142.467C65.9892 181.695 73.4488 234.702 112.392 269.452L139.904 221.799C186.04 248.436 227.494 238.16 250.935 197.558C273.583 158.33 266.124 105.323 227.181 70.573L199.669 118.226Z" fill="#088142"/>
<rect opacity="0.25" x="216.834" y="32.2689" width="28.1219" height="345.122" transform="rotate(30 216.834 32.2689)" fill="url(#paint2_linear)"/>
<g filter="url(#filter0_dd)">
<path d="M221.587 199.911C205.075 228.51 168.505 238.309 139.906 221.797C111.306 205.285 101.507 168.715 118.019 140.115C134.531 111.516 171.101 101.717 199.701 118.229C228.3 134.741 238.099 171.311 221.587 199.911Z" fill="url(#paint3_linear)"/>
</g>
</g>
</g>
</g>
<defs>
<filter id="filter0_dd" x="105.998" y="107.208" width="127.611" height="127.611" filterUnits="userSpaceOnUse" color-interpolation-filters="sRGB">
<feFlood flood-opacity="0" result="BackgroundImageFix"/>
<feColorMatrix in="SourceAlpha" type="matrix" values="0 0 0 0 0 0 0 0 0 0 0 0 0 0 0 0 0 0 127 0"/>
<feOffset dy="0.19"/>
<feGaussianBlur stdDeviation="0.19"/>
<feColorMatrix type="matrix" values="0 0 0 0 0 0 0 0 0 0 0 0 0 0 0 0 0 0 0.24 0"/>
<feBlend mode="normal" in2="BackgroundImageFix" result="effect1_dropShadow"/>
<feColorMatrix in="SourceAlpha" type="matrix" values="0 0 0 0 0 0 0 0 0 0 0 0 0 0 0 0 0 0 127 0"/>
<feOffset dy="1"/>
<feGaussianBlur stdDeviation="2"/>
<feColorMatrix type="matrix" values="0 0 0 0 0 0 0 0 0 0 0 0 0 0 0 0 0 0 0.32 0"/>
<feBlend mode="normal" in2="effect1_dropShadow" result="effect2_dropShadow"/>
<feBlend mode="normal" in="SourceGraphic" in2="effect2_dropShadow" result="shape"/>
</filter>
<linearGradient id="paint0_linear" x1="124.665" y1="36.2652" x2="154.132" y2="303.732" gradientUnits="userSpaceOnUse">
<stop stop-color="#096738"/>
<stop offset="1" stop-color="#0A4C2D"/>
</linearGradient>
<linearGradient id="paint1_linear" x1="245.933" y1="32.8673" x2="301.467" y2="298.067" gradientUnits="userSpaceOnUse">
<stop stop-color="#4ED062"/>
<stop offset="1" stop-color="#209B4E"/>
</linearGradient>
<linearGradient id="paint2_linear" x1="244.956" y1="306.88" x2="216.834" y2="306.88" gradientUnits="userSpaceOnUse">
<stop/>
<stop offset="0.271932" stop-opacity="0.560661"/>
<stop offset="0.620896" stop-opacity="0.264518"/>
<stop offset="1" stop-opacity="0"/>
</linearGradient>
<linearGradient id="paint3_linear" x1="229.608" y1="229.818" x2="186.334" y2="95.6698" gradientUnits="userSpaceOnUse">
<stop stop-color="#66EB6E"/>
<stop offset="1" stop-color="#9FE0A2"/>
</linearGradient>
<clipPath id="clip0">
<rect width="340" height="340" fill="white"/>
</clipPath>
<clipPath id="clip1">
<rect width="340" height="340" fill="white"/>
</clipPath>
</defs>
</svg>
